pro/src/icons/stroke-search.svg

<svg width="48" height="48" viewBox="0 0 48 48" xmlns="http://www.w3.org/2000/svg">
<path id="icon" fill-rule="evenodd" clip-rule="evenodd" d="M6.00256 19.3787C6.00256 11.9933 11.9933 6.00256 19.3787 6.00256C22.7906 6.00256 25.8941 7.27232 28.2649 9.37547C28.6786 9.74244 29.3114 9.70458 29.6784 9.2909C30.0454 8.87722 30.0075 8.24438 29.5938 7.8774C26.8709 5.46195 23.2992 4 19.3787 4C10.8873 4 4 10.8873 4 19.3787C4 27.87 10.8873 34.7573 19.3787 34.7573C27.87 34.7573 34.7573 27.87 34.7573 19.3787C34.7573 17.2389 34.3184 15.1851 33.527 13.3277C33.3103 12.8189 32.7221 12.5822 32.2134 12.799C31.7047 13.0157 31.4679 13.6038 31.6847 14.1126C32.3722 15.7263 32.7548 17.5133 32.7548 19.3787C32.7548 26.764 26.764 32.7548 19.3787 32.7548C11.9933 32.7548 6.00256 26.764 6.00256 19.3787ZM33.4372 32.0211C33.0462 31.6301 32.4122 31.6301 32.0211 32.0211C31.6301 32.4122 31.6301 33.0462 32.0211 33.4372L42.2907 43.7067C42.6817 44.0978 43.3157 44.0978 43.7067 43.7067C44.0978 43.3157 44.0978 42.6817 43.7067 42.2907L33.4372 32.0211Z" fill="currentColor"/>
</svg>

<svg xmlns="http://www.w3.org/2000/svg" width="48" height="48"><path id="icon" fill="currentColor" fill-rule="evenodd" d="M6.003 19.379c0-7.386 5.99-13.376 13.376-13.376 3.412 0 6.515 1.27 8.886 3.372a1.001 1.001 0 1 0 1.329-1.498A15.33 15.33 0 0 0 19.379 4C10.887 4 4 10.887 4 19.379c0 8.491 6.887 15.378 15.379 15.378 8.491 0 15.378-6.887 15.378-15.378 0-2.14-.439-4.194-1.23-6.051a1.001 1.001 0 1 0-1.842.785 13.4 13.4 0 0 1 1.07 5.266c0 7.385-5.991 13.376-13.376 13.376-7.386 0-13.376-5.991-13.376-13.376M33.437 32.02a1.001 1.001 0 0 0-1.416 1.416l10.27 10.27a1.001 1.001 0 1 0 1.416-1.416z" clip-rule="evenodd"/></svg>
